packages/core/src/svgs/tokens/branded/FREN.svg

<svg width="24" height="24" viewBox="0 0 24 24" fill="none" xmlns="http://www.w3.org/2000/svg">
<path d="M9.46798 6.21611C10.3976 6.12198 11.4917 6.51026 11.9977 6.51026C12.5037 6.51026 13.5978 6.12198 14.5274 6.21611C16.2745 4.44535 17.5923 1.28623 19.5631 2.14514C20.2103 2.42163 20.975 3.38055 20.7985 4.79832C20.6103 6.21611 19.869 8.01628 19.869 8.01628C19.8279 8.13393 19.816 8.34572 19.816 8.50455C19.9514 9.18701 19.9337 10.6518 18.7924 11.0165C18.7631 11.2695 18.5983 11.7814 18.3218 12.299C18.3218 13.1403 18.4512 14.5698 18.4748 14.8993C18.5513 16.017 18.4571 17.6525 17.1805 18.8526C16.6688 19.3349 16.0393 19.635 15.4862 20.0527C15.1451 20.3116 14.8568 20.641 14.5274 20.9293C13.8439 21.5844 12.9437 21.9654 11.9977 22C11.0516 21.9654 10.1514 21.5844 9.46798 20.9293C9.1386 20.641 8.85034 20.3116 8.50913 20.0468C7.95614 19.635 7.33256 19.3349 6.82074 18.8526C5.53826 17.6525 5.44413 16.0229 5.5265 14.8993C5.54415 14.5698 5.67356 13.1403 5.67356 12.299C5.44954 11.8993 5.29067 11.4663 5.20294 11.0165C4.06166 10.6518 4.044 9.19291 4.17931 8.50455C4.17931 8.34572 4.16754 8.13393 4.12047 8.01628C4.12047 8.01628 3.38512 6.21611 3.20274 4.79832C3.02038 3.38643 3.79105 2.42163 4.43228 2.14514C6.40305 1.28623 7.72082 4.44535 9.46798 6.21611Z" fill="#231F20"/>
<path d="M4.6079 6.96947C4.32552 6.18116 4.0549 5.26343 4.00784 4.5516C3.96078 3.79859 4.24316 3.36324 4.55495 3.12794C5.04323 2.76319 5.47268 2.89262 5.86096 3.33971C6.43748 3.99272 7.04343 5.27519 7.27286 6.58709C7.39051 7.28715 7.31992 7.80484 7.16697 8.18134C6.91989 8.79899 6.02568 9.56385 5.46092 8.91087C5.04323 8.41079 4.82556 7.57541 4.6079 6.96947ZM19.2799 6.96947C19.5623 6.18116 19.8269 5.26343 19.874 4.5516C19.927 3.79859 19.6387 3.36324 19.3328 3.12794C18.8445 2.76319 18.4151 2.89262 18.0268 3.33971C17.2945 4.28854 16.8094 5.4044 16.6149 6.58709C16.5018 7.11805 16.5384 7.67001 16.7208 8.18134C16.9679 8.79899 17.8562 9.56385 18.4209 8.91087C18.8445 8.41079 19.0681 7.57541 19.2799 6.96947Z" fill="#7C6261"/>
<path fill-rule="evenodd" clip-rule="evenodd" d="M6.76172 9.88138C6.17343 10.399 5.99695 10.6049 5.96753 10.8108C5.96753 10.9521 6.09696 11.2403 6.22638 11.5168C6.31462 11.7227 6.40875 11.9286 6.44404 12.0639C6.497 12.2052 6.54994 12.9464 6.36168 14.7525C6.49111 14.7348 6.83232 14.7348 7.17352 14.8407C8.13243 15.1407 8.51484 14.6936 9.11489 13.7935L9.20312 13.6523C9.82679 12.711 10.3444 11.9169 11.9975 11.9169C13.6623 11.9169 14.1506 12.6698 14.7448 13.5817L14.8861 13.7935C15.4802 14.6936 15.8626 15.1466 16.8274 14.8407C17.0883 14.7614 17.3616 14.7315 17.6333 14.7525C17.4452 12.9464 17.498 12.2052 17.551 12.0639C17.5863 11.9227 17.6804 11.7227 17.7687 11.5168C17.8981 11.2403 18.0274 10.9521 18.0274 10.8108C17.9981 10.6049 17.8215 10.399 17.2274 9.88138C16.6946 9.39312 16.2026 8.86189 15.7568 8.293C15.6872 8.20394 15.6165 8.11569 15.545 8.02826C15.2861 7.70471 14.8213 7.11053 14.5154 7.05759C14.3153 7.02817 13.7506 7.11642 13.18 7.19878C12.7094 7.26938 12.2387 7.33996 11.9975 7.33996C11.7564 7.33996 11.2857 7.26938 10.8151 7.19878C10.2503 7.11053 9.67964 7.0223 9.47964 7.05759C9.17372 7.11053 8.70896 7.70471 8.45011 8.02826L8.33246 8.18122C8.30893 8.21064 8.27363 8.24593 8.24421 8.293C7.98537 8.61068 7.42061 9.31076 6.76761 9.88138H6.76172ZM9.17372 9.81083C8.58543 9.94027 8.06185 10.3637 7.82065 10.6167C8.37364 10.4226 9.14431 10.305 9.57971 10.5755C9.91491 10.7814 10.1208 11.3404 10.1915 11.9581C10.3915 11.6169 10.5444 10.9755 10.4621 10.4991C10.3444 9.8343 9.73262 9.67548 9.16783 9.81083H9.17372ZM16.2038 10.6167C15.8312 10.2342 15.3646 9.95619 14.8507 9.81083C14.2859 9.68138 13.6741 9.8343 13.5565 10.4991C13.4741 10.9755 13.6329 11.6169 13.827 11.9581C13.8977 11.3404 14.1095 10.7814 14.4448 10.5755C14.8743 10.305 15.6449 10.4226 16.2097 10.6167H16.2038ZM9.73262 12.3875C9.40908 10.8579 7.94419 10.7814 7.45002 12.0051C7.53238 12.3463 7.84417 13.017 8.46188 12.9817C8.9417 12.942 9.39192 12.7335 9.73262 12.3934V12.3875ZM16.5449 12.0051C16.0508 10.7814 14.586 10.852 14.2625 12.3875C14.4331 12.5699 14.9213 12.9464 15.5331 12.9758C16.1509 13.017 16.4626 12.3463 16.5449 12.0051Z" fill="#E3BA6A"/>
<path d="M8.19119 12.1522C8.3309 12.1522 8.44416 12.0337 8.44416 11.8875C8.44416 11.7412 8.3309 11.6227 8.19119 11.6227C8.05149 11.6227 7.93823 11.7412 7.93823 11.8875C7.93823 12.0337 8.05149 12.1522 8.19119 12.1522Z" fill="white"/>
<path d="M15.0452 12.1522C15.185 12.1522 15.2982 12.0337 15.2982 11.8875C15.2982 11.7412 15.185 11.6227 15.0452 11.6227C14.9055 11.6227 14.7922 11.7412 14.7922 11.8875C14.7922 12.0337 14.9055 12.1522 15.0452 12.1522Z" fill="white"/>
<path fill-rule="evenodd" clip-rule="evenodd" d="M6.70839 15.5176C6.39659 15.3999 6.30835 15.6823 6.30835 15.9765C6.31422 16.7295 6.72603 17.306 7.28491 17.6942C8.29088 18.4002 9.52046 18.4708 10.5029 17.6942C11.1874 17.1113 11.7033 16.3556 11.9972 15.5058C12.2909 16.3556 12.8068 17.1113 13.4913 17.6942C14.4738 18.4708 15.7034 18.4002 16.7093 17.6942C17.0013 17.5108 17.2433 17.2579 17.4136 16.9582C17.584 16.6584 17.6776 16.3211 17.6858 15.9765C17.6858 15.6823 17.5977 15.3999 17.2858 15.5176C16.7329 15.7294 16.0975 15.8176 15.5681 15.5176C15.0202 15.1774 14.5814 14.6874 14.3033 14.1056C13.6561 12.8643 12.8325 12.6349 11.9972 12.6349C11.1559 12.6349 10.3382 12.8643 9.69108 14.1056C9.41284 14.6874 8.97397 15.1774 8.4262 15.5176C7.89673 15.8176 7.26137 15.7294 6.70839 15.5176ZM11.4264 12.9114C11.2735 12.9055 10.9206 12.9821 10.7088 13.3232C10.444 13.7468 10.3911 13.8645 10.3911 14.0116C10.3911 14.1998 10.5675 14.5411 10.9618 14.5411C11.0676 14.5411 11.3029 14.4881 11.4264 14.2292L11.197 14.0116C11.1793 13.9939 11.1618 13.935 11.2264 13.8645C11.3147 13.7762 11.4264 13.6586 11.55 13.7291C11.6441 13.788 11.7206 13.8822 11.7618 13.935C11.9148 14.1586 11.6677 14.5233 11.45 14.6116C11.3795 14.6469 11.25 14.747 11.3383 14.8646C11.4559 15.0116 11.8559 15.3351 11.9972 15.3351C12.1383 15.3351 12.5442 15.0116 12.6561 14.8646C12.7442 14.747 12.6149 14.6469 12.5383 14.6116C12.3266 14.5233 12.0795 14.1586 12.2325 13.935C12.2736 13.8763 12.3501 13.788 12.4443 13.7291C12.5678 13.6586 12.6795 13.7762 12.7678 13.8645C12.8325 13.935 12.8149 13.9939 12.7972 14.0116L12.5678 14.2292C12.6913 14.4881 12.9325 14.547 13.0325 14.5411C13.4208 14.5411 13.6032 14.1998 13.6032 14.0116C13.6032 13.8645 13.5443 13.7468 13.2854 13.3173C13.0736 12.9821 12.7207 12.9055 12.5678 12.9055H11.4264V12.9114Z" fill="#67686C"/>
<path d="M10.797 18.3114C10.5913 18.4665 10.3575 18.5803 10.1086 18.6467C10.2028 18.9761 10.5145 19.6291 10.9088 19.6644C11.397 19.7115 11.7736 19.6232 11.997 19.5056C12.2206 19.6232 12.5972 19.7115 13.0854 19.6644C13.4795 19.6291 13.7914 18.9761 13.8856 18.6467C13.6366 18.5803 13.4029 18.4665 13.1972 18.3114C12.7854 18.0172 12.1383 18.135 11.997 18.8997C11.8559 18.135 11.2146 18.0172 10.797 18.3114Z" fill="#FA8077"/>
<path d="M9.46735 18.8232C8.86143 18.9232 8.34961 18.8232 8.16724 18.7643C8.4555 18.9586 9.1438 19.4527 9.6027 19.9057C10.1792 20.4645 10.9617 21.1587 11.9971 21.1587C13.0323 21.1587 13.8207 20.4645 14.3913 19.9057C14.8386 19.4876 15.3187 19.1059 15.8268 18.7643C15.6503 18.8232 15.1325 18.9232 14.5325 18.8232C14.4149 19.5468 13.7442 20.8529 11.9971 20.2704C10.2498 20.8529 9.58499 19.5468 9.46735 18.8232Z" fill="#67686C"/>
</svg>

<svg xmlns="http://www.w3.org/2000/svg" width="24" height="24" fill="none" viewBox="0 0 24 24">
    <path fill="#231F20" d="M9.468 6.216c.93-.094 2.024.294 2.53.294s1.6-.388 2.53-.294c1.746-1.77 3.064-4.93 5.035-4.07.647.276 1.412 1.235 1.236 2.652-.189 1.418-.93 3.218-.93 3.218-.041.118-.053.33-.053.489.135.682.118 2.147-1.024 2.512-.029.253-.194.764-.47 1.282 0 .841.13 2.27.153 2.6.076 1.118-.018 2.754-1.295 3.954-.511.482-1.14.782-1.694 1.2-.34.259-.63.588-.959.876A3.86 3.86 0 0 1 11.997 22a3.86 3.86 0 0 1-2.529-1.07c-.33-.289-.618-.618-.959-.883-.553-.412-1.176-.712-1.688-1.194-1.283-1.2-1.377-2.83-1.294-3.954.017-.33.147-1.759.147-2.6a4.3 4.3 0 0 1-.471-1.282c-1.141-.365-1.159-1.824-1.024-2.512 0-.16-.011-.371-.059-.489 0 0-.735-1.8-.917-3.218-.183-1.412.588-2.376 1.23-2.653 1.97-.859 3.288 2.3 5.035 4.071"/>
    <path fill="#7C6261" d="M4.608 6.97c-.282-.789-.553-1.707-.6-2.418-.047-.753.235-1.189.547-1.424.488-.365.918-.235 1.306.212.576.653 1.182 1.935 1.412 3.247.118.7.047 1.218-.106 1.594-.247.618-1.141 1.383-1.706.73-.418-.5-.635-1.336-.853-1.942m14.672 0c.282-.789.547-1.707.594-2.418.053-.753-.235-1.189-.541-1.424-.488-.365-.918-.235-1.306.212a7.24 7.24 0 0 0-1.412 3.247 2.93 2.93 0 0 0 .106 1.594c.247.618 1.135 1.383 1.7.73.424-.5.647-1.336.859-1.942"/>
    <path fill="#E3BA6A" fill-rule="evenodd" d="M6.762 9.881c-.589.518-.765.724-.794.93 0 .141.129.43.258.706.089.206.183.412.218.547.053.141.106.882-.082 2.688.13-.017.47-.017.812.089.958.3 1.34-.147 1.94-1.047l.09-.142c.623-.941 1.14-1.735 2.794-1.735 1.664 0 2.153.753 2.747 1.665l.141.211c.594.9.977 1.354 1.941 1.048.261-.08.535-.11.806-.088-.188-1.807-.135-2.548-.082-2.69.035-.14.13-.34.218-.546.13-.277.258-.565.258-.706-.029-.206-.206-.412-.8-.93a13 13 0 0 1-1.47-1.588q-.104-.134-.212-.265c-.259-.323-.724-.917-1.03-.97-.2-.03-.764.058-1.335.14-.47.071-.941.142-1.182.142-.242 0-.712-.07-1.183-.141-.565-.088-1.135-.177-1.335-.141-.306.053-.771.647-1.03.97l-.118.153c-.023.03-.058.065-.088.112-.259.318-.823 1.018-1.476 1.588zm2.412-.07c-.589.13-1.112.553-1.353.806.553-.194 1.323-.312 1.759-.042.335.206.54.765.611 1.383.2-.341.353-.982.271-1.459-.118-.665-.73-.824-1.294-.688zm7.03.806a3.05 3.05 0 0 0-1.353-.806c-.565-.13-1.177.023-1.295.688-.082.476.077 1.118.271 1.46.07-.619.283-1.178.618-1.383.43-.271 1.2-.153 1.765.04zm-6.471 1.77c-.324-1.53-1.789-1.606-2.283-.382.082.341.394 1.012 1.012.977.48-.04.93-.248 1.27-.589zm6.812-.382c-.494-1.224-1.959-1.153-2.283.382.171.183.66.56 1.271.589.618.041.93-.63 1.012-.97" clip-rule="evenodd"/>
    <path fill="#fff" d="M8.191 12.152c.14 0 .253-.118.253-.264a.26.26 0 0 0-.253-.265.26.26 0 0 0-.253.264c0 .147.113.265.253.265m6.854 0c.14 0 .253-.118.253-.264a.26.26 0 0 0-.253-.265.26.26 0 0 0-.253.264.26.26 0 0 0 .253.265"/>
    <path fill="#67686C" fill-rule="evenodd" d="M6.708 15.518c-.311-.118-.4.164-.4.458.006.754.418 1.33.977 1.718 1.006.706 2.235.777 3.218 0a5.04 5.04 0 0 0 1.494-2.188 5.04 5.04 0 0 0 1.494 2.188c.983.777 2.212.706 3.218 0a2.09 2.09 0 0 0 .977-1.717c0-.295-.088-.577-.4-.46-.553.212-1.189.3-1.718 0a3.4 3.4 0 0 1-1.265-1.411c-.647-1.242-1.47-1.471-2.306-1.471-.841 0-1.659.23-2.306 1.47a3.4 3.4 0 0 1-1.265 1.413c-.53.3-1.165.211-1.718 0m4.718-2.607a.86.86 0 0 0-.717.412c-.265.424-.318.541-.318.689 0 .188.177.53.57.53a.53.53 0 0 0 .465-.313l-.229-.217c-.018-.018-.035-.077.03-.148.088-.088.2-.205.323-.135a.9.9 0 0 1 .212.206c.153.224-.094.588-.312.677-.07.035-.2.135-.112.253.118.147.518.47.66.47.14 0 .546-.323.658-.47.088-.118-.041-.218-.118-.253-.211-.089-.459-.453-.306-.677a.8.8 0 0 1 .212-.206c.124-.07.236.047.324.136.064.07.047.129.03.147l-.23.217a.52.52 0 0 0 .465.312.57.57 0 0 0 .57-.53c0-.146-.059-.264-.318-.694a.89.89 0 0 0-.717-.412h-1.142z" clip-rule="evenodd"/>
    <path fill="#FA8077" d="M10.797 18.311a2 2 0 0 1-.688.336c.094.33.406.982.8 1.017.488.047.865-.04 1.088-.158.224.117.6.206 1.088.158.394-.035.706-.688.8-1.017a2 2 0 0 1-.688-.336c-.412-.294-1.059-.176-1.2.589-.141-.765-.782-.883-1.2-.589"/>
    <path fill="#67686C" d="M9.467 18.823c-.606.1-1.117 0-1.3-.059.289.195.977.689 1.436 1.142.576.559 1.359 1.253 2.394 1.253s1.824-.694 2.394-1.253q.673-.628 1.436-1.142c-.177.06-.694.16-1.294.06-.118.723-.789 2.029-2.536 1.446-1.747.583-2.412-.723-2.53-1.447"/>
</svg>
